X: 2
T: Miss Sayer's Allemande
O: 1781
P: 3 times
Z: 2006 John Chambers <jc@trillian.mit.edu>
M: 2/4
L: 1/16
K: D
   A2 \
| "D"f2f2 f2f2 | f6 "(A7)"g2 | "D"f2e2 "A7"d2c2 | "D"dcde d3A \
| "D"f2f2 f2f2 | f6 "G"g2 | "D"f2e2 "A7"d2c2 | "D"d6 :|
|: A2 \
| "D"F4 D2A,2 | "A7"G4 E2A,2 | "D"A2GA "G"B2e2 | "D"d4 "A7"c4 \
| "D"F4 D2A,2 | "A7(G)"G4 E2G2 | "D"F2E2 "A7"D2C2 | "D"D6 :|
%%sep 1 1 10cm
